icons/rocket.svg

<svg width="24" height="24" viewBox="0 0 24 24" fill="none" xmlns="http://www.w3.org/2000/svg">
<path fill-rule="evenodd" clip-rule="evenodd" d="M11.271 5.689C11.7443 5.1647 12.2291 4.65091 12.725 4.14799C14.846 2.02599 19.801 1.324 21.21 2.734C22.62 4.144 21.914 9.1 19.796 11.219C19.444 11.571 18.895 12.09 18.254 12.672L18.654 15.472C18.694 15.805 18.668 16.109 18.577 16.382C18.44 16.793 18.17 17.087 18.088 17.168C18.007 17.25 17.391 17.744 16.729 17.662C16.288 17.608 15.927 17.343 15.645 16.868L14.857 15.553C14.5187 15.8158 14.1708 16.066 13.814 16.303C13.814 16.303 13.145 16.726 12.478 16.656C12.033 16.609 11.641 16.403 11.302 16.039L7.89999 12.637C7.51999 12.223 7.30999 11.827 7.27099 11.449C7.21199 10.882 7.63999 10.129 7.63999 10.129C7.84099 9.81999 8.09799 9.466 8.38999 9.086L7.07599 8.298C6.59999 8.017 6.33599 7.655 6.28099 7.214C6.19899 6.552 6.69299 5.936 6.77499 5.854C6.85599 5.774 7.14999 5.503 7.56099 5.366C7.83499 5.275 8.13799 5.249 8.47099 5.289L11.271 5.689ZM17.945 8.07699C18.4754 8.07699 18.9841 7.86628 19.3592 7.49121C19.7343 7.11614 19.945 6.60743 19.945 6.077C19.945 5.54656 19.7343 5.03785 19.3592 4.66278C18.9841 4.28771 18.4754 4.077 17.945 4.077C17.4146 4.077 16.9058 4.28771 16.5308 4.66278C16.1557 5.03785 15.945 5.54656 15.945 6.077C15.945 6.60743 16.1557 7.11614 16.5308 7.49121C16.9058 7.86628 17.4146 8.07699 17.945 8.07699ZM6.76699 15.884C7.23699 15.412 7.70899 15.412 8.18099 15.884C8.65199 16.355 8.65199 16.826 8.18099 17.298L5.76699 19.712C5.29499 20.184 4.82399 20.184 4.35299 19.713C3.88299 19.243 3.88299 18.771 4.35299 18.298L6.76699 15.884ZM8.76699 17.884C9.23699 17.412 9.70899 17.412 10.181 17.884C10.652 18.355 10.652 18.826 10.181 19.298L7.76699 21.712C7.29499 22.184 6.82399 22.184 6.35299 21.713C5.88299 21.243 5.88299 20.771 6.35299 20.298L8.76699 17.884ZM4.76699 13.884C5.23699 13.412 5.70899 13.412 6.18099 13.884C6.65199 14.355 6.65199 14.826 6.18099 15.298L3.76699 17.712C3.29499 18.184 2.82399 18.184 2.35299 17.713C1.88299 17.243 1.88299 16.771 2.35299 16.298L4.76699 13.884Z" fill="#3A3A47"/>
</svg>

<svg xmlns="http://www.w3.org/2000/svg" width="24" height="24" viewBox="0 0 24 24">
    <path fill="#3A3A47" fill-rule="evenodd" d="M21.21 2.734c1.41 1.41.704 6.366-1.414 8.485-.352.352-.9.87-1.541 1.452l.4 2.8c.04.334.013.638-.078.911-.137.411-.407.705-.489.786-.081.082-.697.576-1.359.494-.441-.054-.802-.319-1.084-.794l-.79-1.314c-.378.291-.732.548-1.04.75 0 0-.67.422-1.337.352-.445-.047-.837-.253-1.176-.617L7.9 12.637c-.38-.414-.59-.81-.629-1.188-.059-.567.369-1.32.369-1.32.201-.309.458-.663.749-1.042l-1.313-.789c-.476-.281-.74-.643-.795-1.084-.082-.662.412-1.278.494-1.36.081-.08.375-.351.786-.488.219-.073.457-.104.714-.093l.197.016 2.8.4c.581-.64 1.1-1.19 1.453-1.541 2.121-2.122 7.076-2.824 8.485-1.414zm-3.265 1.343a2 2 0 1 0 0 4 2 2 0 0 0 0-4zM6.767 15.884c.47-.472.942-.472 1.414 0 .471.471.471.942 0 1.414l-2.414 2.414c-.472.472-.943.472-1.414.001-.47-.47-.47-.942 0-1.415l2.414-2.414zm2 2c.47-.472.942-.472 1.414 0 .471.471.471.942 0 1.414l-2.414 2.414c-.472.472-.943.472-1.414.001-.47-.47-.47-.942 0-1.415l2.414-2.414zm-4-4c.47-.472.942-.472 1.414 0 .471.471.471.942 0 1.414l-2.414 2.414c-.472.472-.943.472-1.414.001-.47-.47-.47-.942 0-1.415l2.414-2.414z"/>
</svg>
